src/svg/icon-chat-heart.svg

<svg width="40" height="37" viewBox="0 0 40 37" fill="none" xmlns="http://www.w3.org/2000/svg">
<path fill-rule="evenodd" clip-rule="evenodd" d="M4.28571 0.5H35.7143C38.0812 0.5 40 2.20946 40 4.31818V24.6818C40 26.7905 38.0812 28.5 35.7143 28.5H25.3333L20 36.5L14.6667 28.5H4.28571C1.91878 28.5 0 26.7905 0 24.6818V4.31818C0 2.20946 1.91878 0.5 4.28571 0.5ZM25.6328 10.0212C24.0551 8.56036 21.5473 8.53504 19.9375 9.94532C18.3277 8.53504 15.8198 8.56036 14.2422 10.0212C12.5859 11.5548 12.5859 14.081 14.2422 15.6147L19.1519 20.1609C19.5952 20.5714 20.2798 20.5714 20.723 20.1609L25.6328 15.6147C27.289 14.081 27.289 11.5548 25.6328 10.0212Z" fill="currentColor"/>
</svg>

<svg xmlns="http://www.w3.org/2000/svg" width="40" height="37" fill="none" viewBox="0 0 40 37"><path fill="currentColor" fill-rule="evenodd" d="M4.286.5h31.428C38.081.5 40 2.21 40 4.318v20.364c0 2.109-1.919 3.818-4.286 3.818h-10.38L20 36.5l-5.333-8H4.286C1.919 28.5 0 26.79 0 24.682V4.318C0 2.21 1.919.5 4.286.5m21.347 9.521c-1.578-1.46-4.086-1.486-5.695-.076-1.61-1.41-4.118-1.385-5.696.076-1.656 1.534-1.656 4.06 0 5.594l4.91 4.546c.443.41 1.128.41 1.571 0l4.91-4.546c1.656-1.534 1.656-4.06 0-5.594" clip-rule="evenodd"/></svg>
